X:477
T:Keep that Wheel a'Turning
M:2/4
L:1/16
K:G
B2 d2 G2 B2 | B2 A2 A4 | A2 c2 F2 A2 | A2 G2 G4 | 
B2 B2 A2 G2 | F2 A6 | c2 c2 B2 A2 | G2 B6 | 
d2 d2 g2 f2 | f2 e6 | d2 d2 c2 A2 | G8 || 

